X:1
T:St. Venantius, LM
T:Rouen Church Melody
T:St. Venantius, LM
T:Public Domain
C:Rouen Church Melody
Z:Public Domain
%%score ( 1 2 ) ( 3 4 )
L:1/8
M:3/4
K:F
V:1 treble 
V:2 treble 
V:3 bass 
V:4 bass 
V:1
 [CF]2 | A2 c2 [FB]2 | [FA]2 [EG]2 [EA]2 | [DF]4 [EG]2 | [FA]4 [Fc]2 | [Fd]2 [Ec]2 [DB]2 | %6
 A2 B2 [Ec]2 | c2 B2 [FA]2 | [EG]4 [EG]2 | B2 A2 [DG]2 | [D-F]2 [A,D]2 [CE]2 | %11
 [C-F]2 [CE]3 [=B,D] | [G,C]4 [EG]2 | [EA]2 [DF]2 [DB]2 | [FA]2 [DG]2 [A,F]2 | [CE]4 [CF]2 | %16
 [CF]4 |] %17
V:2
 x2 | F4 x2 | x6 | x6 | x6 | x6 | D4 x2 | F4 x2 | x6 | F4 x2 | x6 | x6 | x6 | x6 | x6 | x6 | x4 |] %17
V:3
 [F,A,]2 | C2 A,2 [B,,D]2 | F,2 C,2 [A,,C]2 | [D,A,]4 [C,C]2 | [F,C]4 [F,A,]2 | %5
 [B,,B,]2 [C,G,]2 G,2 | [D,F,]4 [C,G,]2 | [A,,C]2 [B,,D]2 [F,C]2 | [C,C]4 [C,C]2 | %9
 B,,2 D,2 [G,B,]2 | A,2 F,2 [C,G,]2 | [F,,A,]2 [G,,G,]3 [G,,G,] | [C,E,]4 [C,C]2 | %13
 [A,,C]2 [D,A,]2 [G,,G,]2 | [A,,C]2 [B,,B,]2 [D,F,]2 | [C,G,]4 [F,A,]2 | [F,A,]4 |] %17
V:4
 x2 | F,4 x2 | C4 x2 | x6 | x6 | x4 G,2 | x6 | x6 | x6 | D4 x2 | D,4 x2 | x6 | x6 | x6 | x6 | x6 | %16
 x4 |] %17

